X:1
T:Ephratah, 86.86.76.86
T:Ephratah, 86.86.76.86
T:Uzziah Christopher Burnap, 1895
T:Public Domain Courtesy of the Cyber Hymnal™
C:Uzziah Christopher Burnap, 1895
Z:Public Domain
Z:Courtesy of the Cyber Hymnal™
%%score ( 1 2 ) ( 3 4 )
L:1/8
Q:1/4=115
M:4/4
K:C
V:1 treble 
V:2 treble 
V:3 bass 
V:4 bass 
V:1
 [EG]2 | [EG]2 [EG]2 [EG]2 [CG]2 | [CF]3 [CE] [CE]2 [EG]2 | [DG]2 (DE) [B,F]2 [B,G]2 | %4
 [CE]6 [EG]2 | [EG]2 [Ec]2 [FB]2 E2 | [^DA]3 [EG] [EG]2 [EA]2 | [EB]2 [EG]2 [E^F]2 [^DB]2 | %8
 E6 [B,E]2 | [CF]3 [FG] [FA]2 [FB]2 | [EA]4 [EG]2 [EG]2 | [Ec]3 [FB] [EA]2 [E^G]2 | [EA]6 [EA]2 | %13
 [FA]3 [FG] [EG]2 [Ec]2 | [Dc]3 D [DB]2 [FA]2 | [EG]2 [Cc]2 [CD]2 [B,G]2 | C8 |] %17
V:2
 x2 | x8 | x8 | x2 B,2 x4 | x8 | x6 E2 | x8 | x8 | E6 x2 | x8 | x8 | x8 | x8 | x8 | x3 D x4 | x8 | %16
 C8 |] %17
V:3
 [C,G,]2 | [C,G,]2 [C,C]2 [C,B,]2 [C,E,]2 | [C,A,]3 [C,G,] [C,G,]2 [C,G,]2 | %3
 [G,,F,]2 (F,E,) [G,,D,]2 [G,,G,]2 | [C,G,]6 [C,G,]2 | [C,G,]2 [E,G,]2 [D,G,]2 [C,G,]2 | %6
 [C,^F,]3 [C,G,] [C,G,]2 [C,F,]2 | [B,,G,]2 [B,,B,]2 [B,,A,]2 [B,,A,]2 | [E,G,]6 [E,G,]2 | %9
 [D,A,]3 [D,B,] [G,,C]2 [G,,D]2 | [C,C]4 [C,C]2 [C,G,]2 | [A,,A,]3 [D,B,] [E,C]2 [E,B,]2 | %12
 [A,,C]6 [A,,C]2 | [B,,D]3 [B,,D] [C,C]2 [C,_B,]2 | [F,A,]3 [F,A,] [F,A,]2 [D,C]2 | %15
 [G,,C]2 [G,,E,]2 [G,,A,]2 [G,,F,]2 | [C,E,]8 |] %17
V:4
 x2 | x8 | x8 | x2 G,,2 x4 | x8 | x8 | x8 | x8 | x8 | x8 | x8 | x8 | x8 | x8 | x8 | x8 | x8 |] %17

